X:2
T:2.
Z:Transcrit et/ou corrig par Michel BELLON - 2007-11-12
Z:Pour toute observation mailto:galouvielle@free.fr
M:C
L:1/8
K:Gm
%%continueall 1
z8 | z!f!B,DB, (EC)D2 | D2z2z4 | zDFD (GE)F2 | F2z2z4 |
z4z2z!f!d | G2ze A2zD | (EC)D2D2z2 | z8 | z8 |
z4!f!F2zF | B,2zF (GE)F2 | F2z2z4 | z8 | !f!F2F2F2z2 |
L:1/4
DDDz | BBBz/d/ | Gz/e/ Az/D/ | E/C/DD2 | zGA2 | zG,A,2 ::
z4 | z!f!LALdLG | z4 | zLGLcLF | z4 |
Az/A/Dz/B/ | =Ez/A/ B/G/ A | Azz2 | zLGLGz | z2zLF |
LFzFz | DzDz | B,zB,z | Gz/c/Az/D/ | E/C/DDz |
!p!FzDz | DzB,z | B,zGz/c/ | Az/D/(E/C/)D | D"allarg."z/!f!E/Az/D/ | E/C/DD2 :|
%%footer $D   Galouvielle-MBe 2007 \n-- (--)
